icons/svg/arrow-up-down.svg

<svg width="24" height="24" viewBox="0 0 24 24" fill="none" xmlns="http://www.w3.org/2000/svg">
<path d="M7 16.25L10.9393 20.1893C11.2322 20.4822 11.6161 20.6287 12 20.6287M17 16.25L13.0607 20.1893C12.7678 20.4822 12.3839 20.6287 12 20.6287M7 7.75L10.9393 3.81066C11.2322 3.51777 11.6161 3.37132 12 3.37132M17 7.75L13.0607 3.81066C12.7678 3.51777 12.3839 3.37132 12 3.37132M12 3.37132V3.75L12 20.25V20.6287" stroke="currentColor" stroke-width="1.5" stroke-linecap="round" stroke-linejoin="round"/>
</svg>

<svg xmlns="http://www.w3.org/2000/svg" width="24" height="24" fill="none" viewBox="0 0 24 24"><path stroke="currentColor" stroke-linecap="round" stroke-linejoin="round" stroke-width="1.5" d="m7 16.25 3.94 3.94c.292.292.676.439 1.06.439m5-4.379-3.94 3.94a1.5 1.5 0 0 1-1.06.439M7 7.75l3.94-3.94A1.5 1.5 0 0 1 12 3.371m5 4.379-3.94-3.94A1.5 1.5 0 0 0 12 3.372m0 0V20.63"/></svg>
